src/assets/metronic/worbby/global/img/icon-party.svg

<?xml version="1.0" encoding="UTF-8"?>
<svg width="65px" height="65px" viewBox="0 0 65 65" version="1.1" xmlns="http://www.w3.org/2000/svg" xmlns:xlink="http://www.w3.org/1999/xlink">
    <!-- Generator: Sketch 41.2 (35397) - http://www.bohemiancoding.com/sketch -->
    <title>icon-party</title>
    <desc>Created with Sketch.</desc>
    <defs>
        <linearGradient x1="0%" y1="49.9979293%" x2="99.9874969%" y2="49.9979293%" id="linearGradient-1">
            <stop stop-color="#FFB247" offset="0%"></stop>
            <stop stop-color="#FFCB33" offset="100%"></stop>
        </linearGradient>
    </defs>
    <g id="Worbby-Needor" stroke="none" stroke-width="1" fill="none" fill-rule="evenodd">
        <g id="Categories-List" transform="translate(-185.000000, -274.000000)">
            <g id="icon-party" transform="translate(185.000000, 274.000000)">
                <g>
                    <path d="M27.0833333,54.1666667 C42.0409167,54.1666667 54.1666667,42.0409167 54.1666667,27.0833333 C54.1666667,12.12575 42.0409167,0 27.0833333,0 C12.12575,0 0,12.12575 0,27.0833333 C0,42.0409167 12.12575,54.1666667 27.0833333,54.1666667" id="Fill-1" fill="url(#linearGradient-1)"></path>
                    <path d="M12.1875,10.8333333 C12.1875,10.0869167 11.57975,9.47916667 10.8333333,9.47916667 C9.78683333,9.47916667 8.9375,8.62983333 8.9375,7.58333333 C8.9375,6.53683333 9.78683333,5.6875 10.8333333,5.6875 C13.6705833,5.6875 15.9791667,7.99608333 15.9791667,10.8333333 C15.9791667,13.6705833 13.6705833,15.9791667 10.8333333,15.9791667 C9.78683333,15.9791667 8.9375,15.1298333 8.9375,14.0833333 C8.9375,13.0368333 9.78683333,12.1875 10.8333333,12.1875 C11.57975,12.1875 12.1875,11.57975 12.1875,10.8333333 L12.1875,10.8333333 Z M59.3125,42.25 C59.3125,45.08725 57.0039167,47.3958333 54.1666667,47.3958333 C51.3294167,47.3958333 49.0208333,45.08725 49.0208333,42.25 C49.0208333,41.2035 49.8701667,40.3541667 50.9166667,40.3541667 C51.9631667,40.3541667 52.8125,41.2035 52.8125,42.25 C52.8125,42.9964167 53.42025,43.6041667 54.1666667,43.6041667 C54.9130833,43.6041667 55.5208333,42.9964167 55.5208333,42.25 C55.5208333,41.2035 56.3701667,40.3541667 57.4166667,40.3541667 C58.4631667,40.3541667 59.3125,41.2035 59.3125,42.25 L59.3125,42.25 Z M54.0529167,12.4160833 C56.46225,10.6805833 58.3429167,9.01441667 59.7826667,7.56383333 L60.87575,14.12125 L54.0529167,12.4160833 Z M47.8909167,22.724 L42.4385,18.9074167 C44.6398333,17.9584167 46.64725,16.96825 48.45425,15.9629167 L47.8909167,22.724 Z M32.0255,27.5015 L27.1916667,23.74125 C30.08525,23.1020833 32.7686667,22.3740833 35.2549167,21.5810833 L32.0255,27.5015 Z M64.9750833,16.289 L62.9156667,3.93683333 C63.388,3.28683333 63.6425833,2.86541667 63.6989167,2.76575 C64.2091667,1.88391667 63.9069167,0.756166667 63.0250833,0.248083333 C62.1454167,-0.26 61.0209167,0.0379166667 60.5095833,0.915416667 C60.4023333,1.09633333 50.9058333,16.6508333 19.6874167,21.3958333 C18.681,21.5485833 17.9876667,22.4878333 18.1415,23.49425 C18.2801667,24.4075 19.0655833,25.0618333 19.9615,25.0618333 C20.0535833,25.0618333 20.14675,25.05425 20.241,25.0401667 C20.9755,24.9285833 21.684,24.804 22.39575,24.6815833 L31.4740833,31.74275 C31.8001667,31.9973333 32.1999167,32.1305833 32.6061667,32.1305833 C32.73075,32.1305833 32.8564167,32.1175833 32.981,32.0926667 C33.51075,31.9821667 33.96575,31.64525 34.2235833,31.1696667 L39.5579167,21.3915 L48.4044167,27.5838333 C48.7185833,27.8048333 49.0890833,27.9175 49.46175,27.9175 C49.7271667,27.9175 49.99475,27.859 50.2439167,27.7430833 C50.8419167,27.4625 51.2438333,26.884 51.2990833,26.2264167 L52.17225,15.74625 L62.7098333,18.3809167 C62.8571667,18.41775 63.00775,18.4361667 63.1561667,18.4361667 C63.6144167,18.4361667 64.0618333,18.265 64.4074167,17.9465 C64.8635,17.5250833 65.0769167,16.9021667 64.9750833,16.289 L64.9750833,16.289 Z M32.9745,60.3698333 L29.7450833,54.4505 C32.2313333,55.2435 34.91475,55.9715 37.8083333,56.6106667 L32.9745,60.3698333 Z M17.1090833,55.5923333 L16.54575,48.8323333 C18.35275,49.8376667 20.3601667,50.82675 22.5615,51.77575 L17.1090833,55.5923333 Z M4.12425,46.9906667 L5.21733333,40.43325 C6.65708333,41.8838333 8.53775,43.55 10.9470833,45.2855 L4.12425,46.9906667 Z M45.3125833,54.2641667 C14.0941667,49.5191667 4.59766667,33.96575 4.49041667,33.7848333 C3.97908333,32.9073333 2.85458333,32.6094167 1.97491667,33.1164167 C1.09308333,33.6255833 0.790833333,34.7533333 1.30108333,35.6351667 C1.35741667,35.73375 1.612,36.1551667 2.08433333,36.80625 L0.0249166667,49.1584167 C-0.0769166667,49.7705 0.1365,50.3945 0.592583333,50.8159167 C0.938166667,51.1344167 1.38558333,51.3045 1.84383333,51.3045 C1.99225,51.3045 2.14283333,51.2871667 2.29016667,51.2503333 L12.82775,48.6156667 L13.7009167,59.0958333 C13.7561667,59.7534167 14.1580833,60.3308333 14.7560833,60.6114167 C15.00525,60.7284167 15.2728333,60.7858333 15.53825,60.7858333 C15.9109167,60.7858333 16.2814167,60.6731667 16.5955833,60.45325 L25.4420833,54.2598333 L30.7764167,64.0390833 C31.03425,64.5135833 31.48925,64.8515833 32.019,64.961 C32.1435833,64.987 32.26925,65 32.3938333,65 C32.8000833,65 33.1998333,64.8656667 33.5259167,64.6121667 L42.60425,57.551 C43.316,57.6734167 44.0245,57.798 44.759,57.9095833 C44.85325,57.9236667 44.9464167,57.93125 45.0385,57.93125 C45.9344167,57.93125 46.7198333,57.2769167 46.8585,56.3636667 C47.0123333,55.35725 46.319,54.4169167 45.3125833,54.2641667 L45.3125833,54.2641667 Z" id="Fill-3" fill="#1E2225"></path>
                </g>
            </g>
        </g>
    </g>
</svg>

<svg xmlns="http://www.w3.org/2000/svg" width="65" height="65"><defs><linearGradient id="a" x1="0%" x2="99.9875%" y1="49.9979%" y2="49.9979%"><stop stop-color="#FFB247" offset="0%"/><stop stop-color="#FFCB33" offset="100%"/></linearGradient></defs><g fill="none" fill-rule="evenodd"><path fill="url(#a)" d="M27.0833 54.1667c14.9576 0 27.0834-12.1258 27.0834-27.0834C54.1667 12.1257 42.041 0 27.0833 0 12.1257 0 0 12.1258 0 27.0833 0 42.041 12.1258 54.1667 27.0833 54.1667"/><path fill="#1E2225" d="M12.1875 10.8333c0-.7464-.6077-1.354-1.3542-1.354-1.0465 0-1.8958-.8495-1.8958-1.896s.8493-1.8958 1.8958-1.8958c2.8373 0 5.146 2.3086 5.146 5.1458 0 2.8373-2.3087 5.146-5.146 5.146-1.0465 0-1.8958-.8495-1.8958-1.896s.8493-1.8958 1.8958-1.8958c.7465 0 1.3542-.6077 1.3542-1.3542zM59.3125 42.25c0 2.8372-2.3086 5.1458-5.1458 5.1458-2.8373 0-5.146-2.3086-5.146-5.1458 0-1.0465.8495-1.8958 1.896-1.8958s1.8958.8493 1.8958 1.8958c0 .7464.6078 1.3542 1.3542 1.3542.7464 0 1.354-.6078 1.354-1.3542 0-1.0465.8495-1.8958 1.896-1.8958s1.8958.8493 1.8958 1.8958zM54.053 12.416c2.4093-1.7354 4.29-3.4016 5.7297-4.8522l1.093 6.5575-6.8228-1.7052zm-6.162 10.308l-5.4525-3.8166c2.2013-.949 4.2088-1.939 6.0158-2.9445l-.5634 6.761zm-15.8655 4.7775l-4.8338-3.7602c2.8935-.6392 5.577-1.3672 8.0632-2.1602l-3.2295 5.9205zM64.975 16.289L62.9158 3.9368c.4723-.65.727-1.0714.7832-1.171.5102-.882.208-2.0096-.674-2.5177-.8796-.508-2.004-.21-2.5154.6674-.1073.181-9.6038 15.7354-40.8222 20.4804-1.0064.1528-1.6997 1.092-1.546 2.0984.1388.9133.9242 1.5676 1.82 1.5676.0922 0 .1853-.0076.2796-.0216.7345-.1116 1.443-.2362 2.1547-.3586l9.0784 7.0612c.3262.2545.726.3878 1.1322.3878.1245 0 .2502-.013.3748-.038.5297-.1104.9847-.4473 1.2426-.923l5.3343-9.778 8.8464 6.1922c.3142.221.6847.3337 1.0573.3337.2655 0 .533-.0585.7822-.1744.598-.2805.9998-.859 1.055-1.5166l.8732-10.4802 10.5376 2.6347c.1474.0368.298.0552.4464.0552.4582 0 .9056-.1712 1.2512-.4897.456-.4214.6695-1.0443.5677-1.6575zM32.9746 60.3698l-3.2294-5.9193c2.4863.793 5.1697 1.521 8.0633 2.1602l-4.8338 3.759zM17.109 55.5923l-.5633-6.76c1.807 1.0054 3.8145 1.9945 6.0158 2.9435l-5.4524 3.8165zM4.1243 46.9907l1.093-6.5574c1.44 1.4505 3.3206 3.1167 5.73 4.8522l-6.823 1.7052zm41.1884 7.2735c-31.2184-4.745-40.715-20.2985-40.8222-20.4794-.5113-.8775-1.6358-1.1754-2.5155-.6684-.882.5092-1.1842 1.637-.674 2.5188.0564.0986.311.52.7833 1.171L.025 49.1585c-.102.612.1115 1.236.5676 1.6575.3456.3184.793.4885 1.2512.4885.1484 0 .299-.0173.4464-.0542l10.5375-2.6346.8732 10.48c.0552.6577.457 1.235 1.055 1.5157.2492.117.5168.1744.7822.1744.3727 0 .7432-.1126 1.0574-.3326L25.442 54.26l5.3344 9.7793c.258.4746.7128.8126 1.2426.922.1246.026.2503.039.3748.039.4063 0 .806-.1343 1.132-.3878l9.0785-7.0612c.7117.1224 1.4202.247 2.1547.3586.0943.014.1874.0217.2795.0217.896 0 1.6813-.6544 1.82-1.5676.1538-1.0065-.5395-1.9468-1.546-2.0995z"/></g></svg>
